img/logo-color.svg

<svg width="185" height="40" viewBox="0 0 185 40" fill="none" xmlns="http://www.w3.org/2000/svg">
<path d="M36.5083 8.70613C32.9048 3.44887 26.8551 0 20 0C8.9543 0 0 8.9543 0 20C0 21.607 0.189533 23.1697 0.547447 24.667L10.7322 14.4822C11.7085 13.5059 13.2915 13.5059 14.2678 14.4822L22.5 22.7145L36.5083 8.70613Z" fill="#EF2A82"/>
<path d="M38.8854 13.4001L24.2678 28.0178C23.2915 28.9941 21.7085 28.9941 20.7322 28.0178L12.5 19.7855L2.53418 29.7514C5.9555 35.8662 12.495 40 20 40C31.0457 40 40 31.0457 40 20C40 17.6874 39.6075 15.4664 38.8854 13.4001Z" fill="#EF2A82"/>
<path d="M62.8084 25.056H57.6023L56.6931 28H52.6343L58.4141 12.2408H61.9858L67.8089 28H63.7284L62.8084 25.056ZM58.5115 22.1228H61.8993L60.2 16.6569L58.5115 22.1228Z" fill="white"/>
<path d="M82.1285 28H78.3511L72.7661 18.1938V28H68.967V12.2408H72.7661L78.3402 22.047V12.2408H82.1285V28Z" fill="white"/>
<path d="M93.6772 25.056H88.4711L87.5619 28H83.5031L89.2829 12.2408H92.8546L98.6777 28H94.5972L93.6772 25.056ZM89.3803 22.1228H92.7681L91.0688 16.6569L89.3803 22.1228Z" fill="white"/>
<path d="M103.635 25.0776H110.248V28H99.8358V12.2408H103.635V25.0776Z" fill="white"/>
<path d="M114.588 19.0813L117.489 12.2408H121.591L116.515 22.3392V28H112.662V22.3392L107.596 12.2408H111.677L114.588 19.0813Z" fill="white"/>
<path d="M135.305 15.174H130.575V28H126.776V15.174H122.132V12.2408H135.305V15.174Z" fill="white"/>
<path d="M140.965 28H137.177V12.2408H140.965V28Z" fill="white"/>
<path d="M156.357 22.6639C156.306 23.7607 156.01 24.7312 155.469 25.5755C154.928 26.4125 154.167 27.0619 153.185 27.5237C152.211 27.9855 151.096 28.2164 149.841 28.2164C147.77 28.2164 146.139 27.5418 144.948 26.1924C143.758 24.8431 143.163 22.9381 143.163 20.4776V19.6983C143.163 18.1541 143.43 16.8048 143.964 15.6503C144.505 14.4885 145.28 13.5938 146.291 12.966C147.301 12.331 148.47 12.0135 149.797 12.0135C151.71 12.0135 153.247 12.5186 154.408 13.5288C155.57 14.5318 156.23 15.9173 156.389 17.6851H152.601C152.572 16.7254 152.33 16.0363 151.876 15.6178C151.421 15.1993 150.728 14.99 149.797 14.99C148.852 14.99 148.159 15.3436 147.719 16.0507C147.279 16.7579 147.048 17.8871 147.027 19.4385V20.5533C147.027 22.2346 147.236 23.436 147.654 24.1576C148.08 24.8792 148.809 25.24 149.841 25.24C150.714 25.24 151.381 25.0343 151.843 24.623C152.305 24.2117 152.55 23.5587 152.579 22.6639H156.357Z" fill="white"/>
<path d="M166.282 23.8112C166.282 23.2556 166.083 22.8227 165.686 22.5124C165.297 22.2021 164.608 21.881 163.619 21.5491C162.631 21.2172 161.822 20.8961 161.195 20.5858C159.153 19.5828 158.132 18.2046 158.132 16.4512C158.132 15.5781 158.384 14.8096 158.889 14.1458C159.402 13.4747 160.123 12.9552 161.054 12.5872C161.985 12.212 163.031 12.0244 164.193 12.0244C165.326 12.0244 166.339 12.2264 167.234 12.6305C168.136 13.0346 168.836 13.6118 169.334 14.3623C169.832 15.1055 170.081 15.9569 170.081 16.9166H166.293C166.293 16.2744 166.094 15.7765 165.697 15.423C165.308 15.0694 164.777 14.8926 164.106 14.8926C163.428 14.8926 162.89 15.0441 162.493 15.3472C162.104 15.6431 161.909 16.0219 161.909 16.4837C161.909 16.8878 162.125 17.2558 162.558 17.5877C162.991 17.9124 163.753 18.2515 164.842 18.6051C165.932 18.9515 166.827 19.3267 167.526 19.7308C169.229 20.7121 170.081 22.065 170.081 23.7896C170.081 25.1678 169.561 26.2502 168.522 27.0367C167.483 27.8232 166.058 28.2164 164.247 28.2164C162.97 28.2164 161.812 27.9891 160.773 27.5345C159.741 27.0727 158.961 26.445 158.435 25.6512C157.915 24.8503 157.655 23.9303 157.655 22.8912H161.465C161.465 23.7355 161.682 24.3596 162.115 24.7637C162.555 25.1606 163.266 25.359 164.247 25.359C164.875 25.359 165.369 25.2255 165.73 24.9585C166.098 24.6843 166.282 24.3019 166.282 23.8112Z" fill="white"/>
</svg>

<svg width="185" height="40" fill="none" xmlns="http://www.w3.org/2000/svg"><path d="M36.508 8.706C32.905 3.45 26.855 0 20 0 8.954 0 0 8.954 0 20c0 1.607.19 3.17.547 4.667l10.185-10.185a2.5 2.5 0 013.536 0l8.232 8.233L36.508 8.706z" fill="#EF2A82"/><path d="M38.885 13.4L24.268 28.018a2.5 2.5 0 01-3.536 0L12.5 19.785l-9.966 9.966C5.955 35.866 12.495 40 20 40c11.046 0 20-8.954 20-20 0-2.313-.392-4.534-1.115-6.6z" fill="#EF2A82"/><path d="M62.808 25.056h-5.206L56.693 28h-4.059l5.78-15.76h3.572L67.809 28h-4.08l-.92-2.944zm-4.297-2.933H61.9l-1.7-5.466-1.689 5.466zM82.129 28H78.35l-5.585-9.806V28h-3.799V12.24h3.8l5.573 9.807v-9.806h3.788V28zm11.548-2.944h-5.206L87.561 28h-4.058l5.78-15.76h3.572L98.678 28h-4.08l-.92-2.944zm-4.297-2.933h3.388l-1.7-5.466-1.688 5.466zm14.255 2.955h6.613V28H99.836V12.24h3.799v12.838zm10.953-5.997l2.901-6.84h4.102l-5.076 10.098V28h-3.853v-5.66l-5.066-10.1h4.081l2.911 6.841zm20.717-3.907h-4.73V28h-3.799V15.174h-4.644v-2.933h13.173v2.933zM140.965 28h-3.788V12.24h3.788V28zm15.392-5.336c-.051 1.097-.347 2.067-.888 2.912-.541.837-1.302 1.486-2.284 1.948-.974.461-2.089.692-3.344.692-2.071 0-3.702-.674-4.893-2.024-1.19-1.349-1.785-3.254-1.785-5.714v-.78c0-1.544.267-2.893.801-4.048.541-1.162 1.316-2.056 2.327-2.684 1.01-.635 2.179-.952 3.506-.952 1.913 0 3.45.505 4.611 1.515 1.162 1.003 1.822 2.388 1.981 4.156h-3.788c-.029-.96-.271-1.649-.725-2.067-.455-.419-1.148-.628-2.079-.628-.945 0-1.638.354-2.078 1.06-.44.708-.671 1.837-.692 3.389v1.114c0 1.682.209 2.883.627 3.605.426.721 1.155 1.082 2.187 1.082.873 0 1.54-.206 2.002-.617.462-.411.707-1.064.736-1.96h3.778zm9.925 1.147c0-.555-.199-.988-.596-1.299-.389-.31-1.078-.631-2.067-.963-.988-.332-1.797-.653-2.424-.963-2.042-1.003-3.063-2.381-3.063-4.135 0-.873.252-1.641.757-2.305.513-.671 1.234-1.19 2.165-1.559.931-.375 1.977-.563 3.139-.563 1.133 0 2.146.202 3.041.607.902.404 1.602.98 2.1 1.731.498.743.747 1.595.747 2.555h-3.788c0-.643-.199-1.14-.596-1.494-.389-.354-.92-.53-1.591-.53-.678 0-1.216.151-1.613.454-.389.296-.584.675-.584 1.137 0 .404.216.772.649 1.104.433.324 1.195.663 2.284 1.017 1.09.346 1.985.722 2.684 1.126 1.703.981 2.555 2.334 2.555 4.059 0 1.378-.52 2.46-1.559 3.247-1.039.786-2.464 1.18-4.275 1.18-1.277 0-2.435-.228-3.474-.682-1.032-.462-1.812-1.09-2.338-1.884-.52-.8-.78-1.72-.78-2.76h3.81c0 .845.217 1.469.65 1.873.44.397 1.151.595 2.132.595.628 0 1.122-.134 1.483-.4.368-.275.552-.657.552-1.148z" fill="#fff"/></svg>
